svgs/regular/person-cane.svg

<svg xmlns="http://www.w3.org/2000/svg" viewBox="0 0 384 512"><!--! Font Awesome Pro 6.3.0 by @fontawesome - https://fontawesome.com License - https://fontawesome.com/license (Commercial License) Copyright 2023 Fonticons, Inc. --><path d="M144 48a48 48 0 1 1 96 0 48 48 0 1 1 -96 0zM96 209.5L44.9 299.8c-6.5 11.5-21.2 15.6-32.7 9.1S-3.4 287.7 3.1 276.2L61.7 172.7c15.6-27.6 44.9-44.7 76.6-44.7h35c26 0 50.6 11.5 67.3 31.4l81.7 97.2c8.5 10.1 7.2 25.3-2.9 33.8s-25.3 7.2-33.8-2.9L224 214.2V488c0 13.3-10.7 24-24 24s-24-10.7-24-24V352H144V488c0 13.3-10.7 24-24 24s-24-10.7-24-24V209.5zm80-33.4c-.9-.1-1.8-.1-2.7-.1H144V304h32V176.1zM320 376v8c0 13.3-10.7 24-24 24s-24-10.7-24-24v-8c0-30.9 25.1-56 56-56s56 25.1 56 56V488c0 13.3-10.7 24-24 24s-24-10.7-24-24V376c0-4.4-3.6-8-8-8s-8 3.6-8 8z"/></svg>

<svg xmlns="http://www.w3.org/2000/svg" viewBox="0 0 384 512"><!--! Font Awesome Pro 6.2.0 by @fontawesome - https://fontawesome.com License - https://fontawesome.com/license (Commercial License) Copyright 2022 Fonticons, Inc. --><path d="M240 48C240 74.51 218.5 96 192 96C165.5 96 144 74.51 144 48C144 21.49 165.5 0 192 0C218.5 0 240 21.49 240 48zM96 209.5L44.89 299.8C38.37 311.4 23.73 315.4 12.19 308.9C.6512 302.4-3.412 287.7 3.114 276.2L61.66 172.7C77.27 145.1 106.5 128 138.3 128H173.3C199.3 128 223.9 139.5 240.6 159.4L322.4 256.6C330.9 266.7 329.6 281.8 319.5 290.4C309.3 298.9 294.2 297.6 285.6 287.4L224 214.2V488C224 501.3 213.3 512 200 512C186.7 512 176 501.3 176 488V352H144V488C144 501.3 133.3 512 120 512C106.7 512 96 501.3 96 488V209.5zM176 176.1C175.1 176 174.2 176 173.3 176H144V304H176L176 176.1zM320 384C320 397.3 309.3 408 296 408C282.7 408 272 397.3 272 384V376C272 345.1 297.1 320 328 320C358.9 320 384 345.1 384 376V488C384 501.3 373.3 512 360 512C346.7 512 336 501.3 336 488V376C336 371.6 332.4 368 328 368C323.6 368 320 371.6 320 376V384z"/></svg>
